packages/icons/raw/imported/NotificationsAlert.svg

<svg width="32" height="32" viewBox="0 0 32 32" fill="none" xmlns="http://www.w3.org/2000/svg">
<path d="M16.5 20.2222C16.5 19.9461 16.2761 19.7222 16 19.7222C15.7239 19.7222 15.5 19.9461 15.5 20.2222H16.5ZM15.5 21.2778C15.5 21.5539 15.7239 21.7778 16 21.7778C16.2761 21.7778 16.5 21.5539 16.5 21.2778H15.5ZM16.5 10.7222C16.5 10.4461 16.2761 10.2222 16 10.2222C15.7239 10.2222 15.5 10.4461 15.5 10.7222H16.5ZM15.5 17.0556C15.5 17.3317 15.7239 17.5556 16 17.5556C16.2761 17.5556 16.5 17.3317 16.5 17.0556H15.5ZM25 16C25 20.9706 20.9706 25 16 25V26C21.5228 26 26 21.5228 26 16H25ZM16 25C11.0294 25 7 20.9706 7 16H6C6 21.5228 10.4772 26 16 26V25ZM7 16C7 11.0294 11.0294 7 16 7V6C10.4772 6 6 10.4772 6 16H7ZM16 7C20.9706 7 25 11.0294 25 16H26C26 10.4772 21.5228 6 16 6V7ZM15.5 20.2222V21.2778H16.5V20.2222H15.5ZM15.5 10.7222V17.0556H16.5V10.7222H15.5Z" fill="black"/>
</svg>

<svg width="32" height="32" fill="none" xmlns="http://www.w3.org/2000/svg"><path d="M16.5 20.222a.5.5 0 0 0-1 0h1Zm-1 1.056a.5.5 0 0 0 1 0h-1Zm1-10.556a.5.5 0 0 0-1 0h1Zm-1 6.334a.5.5 0 0 0 1 0h-1ZM25 16a9 9 0 0 1-9 9v1c5.523 0 10-4.477 10-10h-1Zm-9 9a9 9 0 0 1-9-9H6c0 5.523 4.477 10 10 10v-1Zm-9-9a9 9 0 0 1 9-9V6C10.477 6 6 10.477 6 16h1Zm9-9a9 9 0 0 1 9 9h1c0-5.523-4.477-10-10-10v1Zm-.5 13.222v1.056h1v-1.056h-1Zm0-9.5v6.334h1v-6.334h-1Z" fill="#000"/></svg>
